packages/icons/src/svg/type-converter.svg

<svg xmlns="http://www.w3.org/2000/svg" viewBox="0 0 16 16">
  <g fill="none" fill-rule="evenodd">
    <g class="type-converter-light-color" fill="#515151">
    <path d="M3.6392,5.9571 C3.9502,6.2601 4.3332,6.4801 4.7742,6.4801 C5.2812,6.4801 5.6162,6.2601 5.6162,5.8671 C5.6162,5.4101 5.3472,5.1241 4.2192,5.1241 L4.2192,4.2741 C5.1502,4.2741 5.4452,3.9971 5.4452,3.5801 C5.4452,3.2211 5.2162,3.0081 4.8072,3.0081 C4.4402,3.0081 4.1622,3.1801 3.8352,3.4661 L3.2312,2.7301 C3.7042,2.3221 4.2272,2.0691 4.8652,2.0691 C5.9352,2.0691 6.6542,2.5831 6.6542,3.4901 C6.6542,4.0291 6.3432,4.4051 5.7882,4.6431 L5.7882,4.6751 C6.3842,4.8461 6.8172,5.2701 6.8172,5.9411 C6.8172,6.9051 5.9352,7.4521 4.8892,7.4521 C4.0472,7.4521 3.4592,7.1591 3.0832,6.7171 L3.6392,5.9571 Z"/>
    </g>
    <g class="type-converter-dark-color" fill="#000">
      <path d="M12.7856 14.2891C13.0966 14.5921 13.4796 14.8111 13.9206 14.8111 14.4276 14.8111 14.7626 14.5921 14.7626 14.1991 14.7626 13.7421 14.4936 13.4561 13.3656 13.4561L13.3656 12.6051C14.2966 12.6051 14.5916 12.3291 14.5916 11.9121 14.5916 11.5531 14.3626 11.3401 13.9536 11.3401 13.5856 11.3401 13.3086 11.5121 12.9816 11.7971L12.3766 11.0611C12.8506 10.6531 13.3736 10.4011 14.0116 10.4011 15.0806 10.4011 15.8006 10.9151 15.8006 11.8211 15.8006 12.3611 15.4896 12.7371 14.9346 12.9751L14.9346 13.0071C15.5306 13.1781 15.9636 13.6021 15.9636 14.2731 15.9636 15.2371 15.0806 15.7841 14.0356 15.7841 13.1936 15.7841 12.6056 15.4901 12.2296 15.0491L12.7856 14.2891zM.8218 1.0703C.7758 1.0703.7318 1.0773.6928 1.0913.6528 1.1053.6258 1.1183.6118 1.1303.6048 1.1013.5988 1.0763.5948 1.0523.5898 1.0293.5878 1.0053.5878.9793.5878.9003.6018.8283.6318.7643.6598.7003.7008.6403.7518.5863.8028.5313.8638.4793.9338.4293 1.0038.3813 1.0798.3313 1.1608.2793L.9548.0033C.8268.0663.7048.1343.5898.2083.4738.2813.3728.3663.2848.4623.1968.5573.1278.6683.0768.7943.0258.9203-.0002 1.0683-.0002 1.2383-.0002 1.3173.0138 1.3993.0418 1.4833.0698 1.5673.1138 1.6443.1748 1.7143.2358 1.7843.3138 1.8413.4088 1.8853.5048 1.9293.6188 1.9523.7518 1.9523.8238 1.9523.8898 1.9383.9478 1.9123 1.0068 1.8843 1.0558 1.8493 1.0968 1.8043 1.1368 1.7603 1.1688 1.7103 1.1908 1.6533 1.2138 1.5953 1.2238 1.5373 1.2238 1.4763 1.2238 1.3573 1.1908 1.2593 1.1228 1.1833 1.0548 1.1083.9548 1.0703.8218 1.0703M2.8018 1.1836C2.7348 1.1086 2.6348 1.0706 2.5008 1.0706 2.4548 1.0706 2.4108 1.0776 2.3718 1.0916 2.3318 1.1056 2.3048 1.1186 2.2908 1.1296 2.2838 1.1016 2.2788 1.0766 2.2738 1.0526 2.2688 1.0296 2.2668 1.0046 2.2668.9796 2.2668.9006 2.2808.8286 2.3108.7646 2.3398.7006 2.3798.6406 2.4308.5856 2.4828.5316 2.5428.4796 2.6138.4296 2.6828.3806 2.7588.3306 2.8408.2796L2.6348.0026C2.5058.0666 2.3838.1346 2.2688.2076 2.1528.2816 2.0518.3666 1.9638.4616 1.8768.5576 1.8068.6676 1.7558.7936 1.7048.9196 1.6788 1.0686 1.6788 1.2386 1.6788 1.3176 1.6928 1.3996 1.7208 1.4836 1.7488 1.5676 1.7938 1.6446 1.8538 1.7136 1.9148 1.7846 1.9928 1.8406 2.0888 1.8856 2.1838 1.9296 2.2988 1.9526 2.4308 1.9526 2.5038 1.9526 2.5688 1.9386 2.6268 1.9126 2.6858 1.8846 2.7348 1.8496 2.7758 1.8046 2.8168 1.7606 2.8478 1.7096 2.8698 1.6536 2.8928 1.5956 2.9038 1.5376 2.9038 1.4766 2.9038 1.3576 2.8698 1.2596 2.8018 1.1836M8.1943.2373C8.1333.1683 8.0563.1103 7.9623.0663 7.8673.0223 7.7523.0003 7.6173.0003 7.5453.0003 7.4803.0133 7.4233.0403 7.3653.0673 7.3173.1023 7.2763.1463 7.2353.1913 7.2033.2423 7.1813.2993 7.1593.3563 7.1483.4153 7.1483.4753 7.1483.5913 7.1823.6893 7.2503.7653 7.3173.8423 7.4163.8823 7.5473.8823 7.5933.8823 7.6373.8743 7.6763.8603 7.7163.8463 7.7433.8343 7.7573.8223 7.7643.8493 7.7703.8763 7.7743.8993 7.7793.9223 7.7813.9463 7.7813.9723 7.7813 1.0513 7.7673 1.1233 7.7373 1.1873 7.7083 1.2523 7.6683 1.3103 7.6173 1.3643 7.5663 1.4183 7.5053 1.4693 7.4353 1.5193 7.3653 1.5703 7.2893 1.6213 7.2083 1.6723L7.4183 1.9483C7.5463 1.8853 7.6683 1.8173 7.7833 1.7443 7.8993 1.6703 7.9993 1.5863 8.0863 1.4903 8.1723 1.3943 8.2413 1.2833 8.2923 1.1563 8.3433 1.0293 8.3693.8823 8.3693.7143 8.3693.6333 8.3553.5523 8.3273.4683 8.2993.3843 8.2553.3073 8.1943.2373M10.0063.4688C9.9783.3848 9.9343.3078 9.8733.2378 9.8133.1678 9.7353.1108 9.6413.0668 9.5463.0228 9.4313-.0002 9.2963-.0002 9.2243-.0002 9.1593.0138 9.1023.0398 9.0453.0678 8.9963.1028 8.9553.1468 8.9143.1918 8.8823.2418 8.8603.2988 8.8383.3568 8.8273.4148 8.8273.4758 8.8273.5918 8.8613.6898 8.9293.7658 8.9963.8428 9.0953.8818 9.2263.8818 9.2733.8818 9.3163.8738 9.3563.8608 9.3953.8468 9.4223.8338 9.4363.8228 9.4433.8498 9.4493.8758 9.4533.8998 9.4583.9218 9.4613.9468 9.4613.9728 9.4613 1.0518 9.4463 1.1228 9.4173 1.1878 9.3873 1.2518 9.3473 1.3108 9.2963 1.3648 9.2453 1.4178 9.1843 1.4698 9.1143 1.5198 9.0443 1.5708 8.9683 1.6208 8.8873 1.6718L9.0973 1.9478C9.2253 1.8858 9.3473 1.8178 9.4623 1.7438 9.5783 1.6698 9.6783 1.5858 9.7653 1.4898 9.8513 1.3948 9.9203 1.2828 9.9713 1.1558 10.0233 1.0298 10.0483.8818 10.0483.7138 10.0483.6338 10.0343.5528 10.0063.4688M11.2607 12.9004L9.8787 11.5174C9.7197 11.3594 9.4627 11.3594 9.3027 11.5174 9.1437 11.6764 9.1437 11.9344 9.3027 12.0934L9.9447 12.7354C7.8157 12.6714 6.1007 10.9314 6.1007 8.7884 6.1007 8.5434 5.9027 8.3444 5.6567 8.3444 5.4117 8.3444 5.2137 8.5434 5.2137 8.7884 5.2137 11.4264 7.3347 13.5704 9.9607 13.6254L9.3027 14.2814C9.1437 14.4404 9.1437 14.6984 9.3027 14.8574 9.3827 14.9374 9.4867 14.9764 9.5907 14.9764 9.6957 14.9764 9.7997 14.9374 9.8787 14.8574L11.2607 13.4754C11.4197 13.3164 11.4197 13.0584 11.2607 12.9004"/>
    </g>
  </g>
</svg>

<svg xmlns="http://www.w3.org/2000/svg" viewBox="0 0 16 16">
	<g fill="none" fill-rule="evenodd">
		<path d="M3.64 5.957c.31.303.693.523 1.134.523.507 0 .842-.22.842-.613 0-.457-.269-.743-1.397-.743v-.85c.931 0 1.226-.277 1.226-.694 0-.359-.229-.572-.638-.572-.367 0-.645.172-.972.458l-.604-.736c.473-.408.996-.66 1.634-.66 1.07 0 1.79.513 1.79 1.42 0 .54-.312.915-.867 1.153v.032c.596.171 1.03.595 1.03 1.266 0 .964-.883 1.511-1.929 1.511-.842 0-1.43-.293-1.806-.735l.556-.76z" class="type-converter-light-color" fill="#515151"/>
		<path d="M12.786 14.29c.31.302.694.521 1.135.521.507 0 .842-.219.842-.612 0-.457-.27-.743-1.397-.743v-.85c.93 0 1.226-.277 1.226-.694 0-.359-.23-.572-.638-.572-.368 0-.645.172-.972.457l-.605-.736c.474-.408.997-.66 1.635-.66 1.069 0 1.789.514 1.789 1.42 0 .54-.311.916-.866 1.154v.032c.596.171 1.029.595 1.029 1.266 0 .964-.883 1.511-1.928 1.511-.842 0-1.43-.294-1.806-.735l.556-.76zM.822 1.07a.384.384 0 0 0-.21.06 1.135 1.135 0 0 1-.017-.078.501.501 0 0 1 .037-.288.627.627 0 0 1 .12-.178A1.19 1.19 0 0 1 .934.43 9.04 9.04 0 0 1 1.16.28L.955.003C.827.066.705.134.59.208a1.482 1.482 0 0 0-.305.254A1.079 1.079 0 0 0 0 1.238c0 .08.014.161.042.245a.672.672 0 0 0 .367.402c.096.044.21.067.343.067a.477.477 0 0 0 .196-.04.468.468 0 0 0 .243-.259.47.47 0 0 0 .033-.177.423.423 0 0 0-.101-.293C1.055 1.108.955 1.07.822 1.07m1.98.114c-.067-.075-.167-.113-.301-.113a.384.384 0 0 0-.21.059l-.017-.077A.501.501 0 0 1 2.31.765a.669.669 0 0 1 .12-.18c.052-.053.112-.105.183-.155.069-.05.145-.1.227-.15L2.635.003a3.994 3.994 0 0 0-.366.205 1.548 1.548 0 0 0-.305.254 1.11 1.11 0 0 0-.208.332 1.184 1.184 0 0 0-.077.445c0 .079.014.16.042.245a.675.675 0 0 0 .368.402c.095.044.21.067.342.067a.473.473 0 0 0 .196-.04.468.468 0 0 0 .243-.26.472.472 0 0 0 .034-.176.423.423 0 0 0-.102-.293M8.194.237a.704.704 0 0 0-.232-.17A.817.817 0 0 0 7.617 0a.449.449 0 0 0-.34.146.485.485 0 0 0-.129.33.42.42 0 0 0 .102.29c.067.076.166.116.297.116.046 0 .09-.008.13-.022a.279.279 0 0 0 .08-.038c.007.027.013.054.017.077a.501.501 0 0 1-.037.288.63.63 0 0 1-.12.177 1.241 1.241 0 0 1-.182.155c-.07.051-.146.102-.227.153l.21.276a3.87 3.87 0 0 0 .365-.204c.116-.074.216-.158.303-.254.086-.096.155-.207.206-.334.051-.127.077-.274.077-.442a.77.77 0 0 0-.042-.246.672.672 0 0 0-.133-.23m1.812.23a.672.672 0 0 0-.365-.401A.816.816 0 0 0 9.296 0a.464.464 0 0 0-.194.04.48.48 0 0 0-.275.436.42.42 0 0 0 .102.29c.067.077.166.116.297.116a.417.417 0 0 0 .21-.06.907.907 0 0 1 .025.15.52.52 0 0 1-.044.216.671.671 0 0 1-.12.177 1.305 1.305 0 0 1-.183.155c-.07.05-.146.1-.227.152l.21.276c.128-.062.25-.13.365-.204.116-.074.216-.158.303-.254a1.11 1.11 0 0 0 .283-.776.77.77 0 0 0-.042-.245M11.261 12.9l-1.382-1.383a.407.407 0 0 0-.576.576l.642.642C7.815 12.671 6.1 10.931 6.1 8.788a.444.444 0 1 0-.887 0c0 2.638 2.12 4.782 4.747 4.837l-.658.656a.407.407 0 0 0 .576.576l1.382-1.382a.406.406 0 0 0 0-.575" class="type-converter-dark-color" fill="#000"/>
	</g>
</svg>
